img/xiaomi.svg

<svg width="160" height="88" viewBox="0 0 160 88" fill="none" xmlns="http://www.w3.org/2000/svg">
<path fill-rule="evenodd" clip-rule="evenodd" d="M92.8372 58.291H66.4268C65.8275 58.291 65.3418 57.8052 65.3418 57.206V30.7937C65.3418 30.1944 65.8275 29.7089 66.4268 29.7089H92.8372C93.4364 29.7089 93.9222 30.1944 93.9222 30.7937V57.206C93.9222 57.8052 93.4364 58.291 92.8372 58.291ZM87.7524 38.6981H85.504C85.4077 38.6981 85.3297 38.7747 85.3297 38.8691V49.1286C85.3297 49.2222 85.4077 49.2988 85.504 49.2988H87.7524C87.8479 49.2988 87.9269 49.2222 87.9269 49.1286V38.8691C87.9269 38.7747 87.8479 38.6981 87.7524 38.6981ZM80.0752 38.6981H71.5104C71.4141 38.6981 71.3367 38.7747 71.3367 38.8691V49.1286C71.3367 49.2222 71.4141 49.2988 71.5104 49.2988H73.7594C73.8551 49.2988 73.9345 49.2222 73.9345 49.1286V41.0764C73.9345 40.9834 74.0119 40.9063 74.1081 40.9063H78.9527C80.315 40.9063 80.7018 41.9497 80.7018 42.6229V49.1286C80.7018 49.2222 80.78 49.2988 80.8763 49.2988H83.1239C83.2196 49.2988 83.2981 49.2222 83.2981 49.1286V41.8505C83.2981 41.2501 83.2259 40.3868 82.4514 39.627C81.641 38.8338 80.9017 38.6981 80.0752 38.6981ZM76.138 42.7847H78.4992C78.5947 42.7847 78.6729 42.8613 78.6729 42.9551V49.1296C78.6729 49.2229 78.5947 49.2995 78.4992 49.2995H76.138C76.0418 49.2995 75.9627 49.2229 75.9627 49.1296V42.9551C75.9627 42.8613 76.0418 42.7847 76.138 42.7847Z" fill="white"/>
</svg>

<svg width="160" height="88" fill="none" xmlns="http://www.w3.org/2000/svg"><path fill-rule="evenodd" clip-rule="evenodd" d="M92.837 58.291h-26.41c-.6 0-1.085-.486-1.085-1.085V30.794c0-.6.486-1.085 1.085-1.085h26.41c.6 0 1.085.485 1.085 1.085v26.412c0 .6-.486 1.085-1.085 1.085Zm-5.085-19.593h-2.248a.173.173 0 0 0-.174.171v10.26c0 .093.078.17.174.17h2.248a.173.173 0 0 0 .175-.17v-10.26a.173.173 0 0 0-.175-.17Zm-7.677 0H71.51a.172.172 0 0 0-.173.171v10.26c0 .093.077.17.173.17h2.25a.174.174 0 0 0 .174-.17v-8.053c0-.093.078-.17.174-.17h4.845c1.362 0 1.749 1.044 1.749 1.717v6.506c0 .093.078.17.174.17h2.248a.173.173 0 0 0 .174-.17V41.85c0-.6-.072-1.463-.847-2.223-.81-.793-1.55-.929-2.376-.929Zm-3.937 4.087h2.361c.096 0 .174.076.174.17v6.175c0 .093-.078.17-.174.17h-2.361a.173.173 0 0 1-.175-.17v-6.175c0-.094.079-.17.175-.17Z" fill="#fff"/></svg>
